X: 15948
T: Granny In The Wood, The
R: polka
M: 2/4
K: Gmajor
gg/g/ ff/g/|e/d/e/f/ ed/c/|B/G/B/d/ ed|B/G/B/d/ ed|
gg/g/ ff/g/|e/d/e/f/ ed/c/|B/G/B/4c/4d/ ed/c/|B/G/A/F/ G2|
gg/g/ ff/g/|e/d/e/f/ ed|B/G/B/d/ ed/B/|G/B/d/g/ e/g/d/f/|
gg/g/ f>g|e/d/e/f/ ed|B/G/B/4c/4d/ ed/c/|B/G/A/F/ G||
|:B/c/|dG/F/ G/B/A/G/|FA AB/d/|ed B/G/B/d/|eA AB/c/|
d/c/B/A/ G/B/A/G/|FA AB/d/|ed B/d/d/B/|1 AG G:|2 AG G2||

